wpp.svg

<?xml version="1.0"?>
<svg xmlns="http://www.w3.org/2000/svg" height="512px" viewBox="-23 -21 682 682.66669" width="512px" class=""><g><path d="m544.386719 93.007812c-59.875-59.945312-139.503907-92.9726558-224.335938-93.007812-174.804687 0-317.070312 142.261719-317.140625 317.113281-.023437 55.894531 14.578125 110.457031 42.332032 158.550781l-44.992188 164.335938 168.121094-44.101562c46.324218 25.269531 98.476562 38.585937 151.550781 38.601562h.132813c174.785156 0 317.066406-142.273438 317.132812-317.132812.035156-84.742188-32.921875-164.417969-92.800781-224.359376zm-224.335938 487.933594h-.109375c-47.296875-.019531-93.683594-12.730468-134.160156-36.742187l-9.621094-5.714844-99.765625 26.171875 26.628907-97.269531-6.269532-9.972657c-26.386718-41.96875-40.320312-90.476562-40.296875-140.28125.054688-145.332031 118.304688-263.570312 263.699219-263.570312 70.40625.023438 136.589844 27.476562 186.355469 77.300781s77.15625 116.050781 77.132812 186.484375c-.0625 145.34375-118.304687 263.59375-263.59375 263.59375zm144.585938-197.417968c-7.921875-3.96875-46.882813-23.132813-54.148438-25.78125-7.257812-2.644532-12.546875-3.960938-17.824219 3.96875-5.285156 7.929687-20.46875 25.78125-25.09375 31.066406-4.625 5.289062-9.242187 5.953125-17.167968 1.984375-7.925782-3.964844-33.457032-12.335938-63.726563-39.332031-23.554687-21.011719-39.457031-46.960938-44.082031-54.890626-4.617188-7.9375-.039062-11.8125 3.476562-16.171874 8.578126-10.652344 17.167969-21.820313 19.808594-27.105469 2.644532-5.289063 1.320313-9.917969-.664062-13.882813-1.976563-3.964844-17.824219-42.96875-24.425782-58.839844-6.4375-15.445312-12.964843-13.359374-17.832031-13.601562-4.617187-.230469-9.902343-.277344-15.1875-.277344-5.28125 0-13.867187 1.980469-21.132812 9.917969-7.261719 7.933594-27.730469 27.101563-27.730469 66.105469s28.394531 76.683594 32.355469 81.972656c3.960937 5.289062 55.878906 85.328125 135.367187 119.648438 18.90625 8.171874 33.664063 13.042968 45.175782 16.695312 18.984374 6.03125 36.253906 5.179688 49.910156 3.140625 15.226562-2.277344 46.878906-19.171875 53.488281-37.679687 6.601563-18.511719 6.601563-34.375 4.617187-37.683594-1.976562-3.304688-7.261718-5.285156-15.183593-9.253906zm0 0" fill-rule="evenodd" data-original="#000000" class="active-path" data-old_color="#000000" fill="#80D2F2"/></g> </svg>

<?xml version="1.0" encoding="UTF-8" standalone="no"?>
<!-- Created with Inkscape (http://www.inkscape.org/) -->

<svg
   xmlns:dc="http://purl.org/dc/elements/1.1/"
   xmlns:cc="http://creativecommons.org/ns#"
   xmlns:rdf="http://www.w3.org/1999/02/22-rdf-syntax-ns#"
   xmlns:svg="http://www.w3.org/2000/svg"
   xmlns="http://www.w3.org/2000/svg"
   xmlns:sodipodi="http://sodipodi.sourceforge.net/DTD/sodipodi-0.dtd"
   xmlns:inkscape="http://www.inkscape.org/namespaces/inkscape"
   width="70"
   height="70"
   viewBox="0 0 18.520833 18.520834"
   version="1.1"
   id="svg8"
   inkscape:version="0.92.4 (5da689c313, 2019-01-14)"
   sodipodi:docname="wpp.svg">
  <defs
     id="defs2" />
  <sodipodi:namedview
     id="base"
     pagecolor="#ffffff"
     bordercolor="#666666"
     borderopacity="1.0"
     inkscape:pageopacity="0.0"
     inkscape:pageshadow="2"
     inkscape:zoom="5.6"
     inkscape:cx="43.479558"
     inkscape:cy="29.866316"
     inkscape:document-units="mm"
     inkscape:current-layer="g835"
     showgrid="false"
     units="px"
     inkscape:window-width="1366"
     inkscape:window-height="705"
     inkscape:window-x="-8"
     inkscape:window-y="-8"
     inkscape:window-maximized="1" />
  <metadata
     id="metadata5">
    <rdf:RDF>
      <cc:Work
         rdf:about="">
        <dc:format>image/svg+xml</dc:format>
        <dc:type
           rdf:resource="http://purl.org/dc/dcmitype/StillImage" />
        <dc:title></dc:title>
      </cc:Work>
    </rdf:RDF>
  </metadata>
  <g
     inkscape:label="Camada 1"
     inkscape:groupmode="layer"
     id="layer1"
     transform="translate(0,-278.47886)">
    <g
       id="g835"
       transform="matrix(0.03315339,0,0,0.03315339,0.8022537,279.33895)">
      <g
         id="g895"
         transform="matrix(0.82577663,0,0,0.82577663,-2.4999698,-14.055303)">
        <path
           id="path893"
           data-old_color="#000000"
           class="active-path"
           data-original="#000000"
           d="M 544.38672,93.007812 C 484.51172,33.0625 404.88281,0.0351562 320.05078,0 145.24609,0 2.980469,142.26172 2.910156,317.11328 2.886719,373.00781 17.488281,427.57031 45.242188,475.66406 L 0.25,640 168.37109,595.89844 c 46.32422,25.26953 98.47657,38.58593 151.55078,38.60156 h 0.13282 C 494.83984,634.5 637.12109,492.22656 637.1875,317.36719 637.22266,232.625 604.26562,152.94922 544.38672,93.007812 Z M 320.05078,580.94141 h -0.10937 c -47.29688,-0.0195 -93.6836,-12.73047 -134.16016,-36.74219 l -9.62109,-5.71484 -99.765629,26.17187 26.628909,-97.26953 -6.269534,-9.97266 C 70.367188,415.44531 56.433594,366.9375 56.457031,317.13281 56.511719,171.80078 174.76172,53.5625 320.15625,53.5625 c 70.40625,0.02344 136.58984,27.476562 186.35547,77.30078 49.76562,49.82422 77.15625,116.05078 77.13281,186.48438 -0.0625,145.34375 -118.30469,263.59375 -263.59375,263.59375 z M 464.63672,383.52344 c -7.92188,-3.96875 -46.88281,-23.13281 -54.14844,-25.78125 -7.25781,-2.64453 -12.54687,-3.96094 -17.82422,3.96875 -5.28515,7.92969 -20.46875,25.78125 -25.09375,31.0664 -4.625,5.28907 -9.24219,5.95313 -17.16797,1.98438 -7.92578,-3.96484 -33.45703,-12.33594 -63.72656,-39.33203 -23.55469,-21.01172 -39.45703,-46.96094 -44.08203,-54.89063 -4.61719,-7.9375 -0.0391,-11.8125 3.47656,-16.17187 8.57813,-10.65235 17.16797,-21.82031 19.8086,-27.10547 2.64453,-5.28906 1.32031,-9.91797 -0.66407,-13.88281 -1.97656,-3.96485 -17.82422,-42.96875 -24.42578,-58.83985 -6.4375,-15.44531 -12.96484,-13.35937 -17.83203,-13.60156 -4.61719,-0.23047 -9.90234,-0.27734 -15.1875,-0.27734 -5.28125,0 -13.86719,1.98047 -21.13281,9.91797 -7.26172,7.93359 -27.73047,27.10156 -27.73047,66.10546 0,39.00391 28.39453,76.6836 32.35547,81.97266 3.96094,5.28906 55.8789,85.32813 135.36719,119.64844 18.90625,8.17187 33.66406,13.04297 45.17578,16.69531 18.98437,6.03125 36.2539,5.17969 49.91015,3.14063 15.22657,-2.27735 46.87891,-19.17188 53.48828,-37.67969 6.60157,-18.51172 6.60157,-34.375 4.61719,-37.6836 -1.97656,-3.30468 -7.26172,-5.28515 -15.18359,-9.2539 z m 0,0"
           inkscape:connector-curvature="0"
           style="fill:#80d2f2;fill-rule:evenodd" />
      </g>
    </g>
  </g>
</svg>
